shared/img/tn-nielsen.svg

<?xml version="1.0" encoding="UTF-8"?>
<svg width="13px" height="13px" viewBox="0 0 13 13" version="1.1" xmlns="http://www.w3.org/2000/svg" xmlns:xlink="http://www.w3.org/1999/xlink">
    <!-- Generator: sketchtool 47.1 (45422) - http://www.bohemiancoding.com/sketch -->
    <title>231106D3-53A5-4699-9614-66225A8F2A42</title>
    <desc>Created with sketchtool.</desc>
    <defs></defs>
    <g id="V4--RC-Updates" stroke="none" stroke-width="1" fill="none" fill-rule="evenodd">
        <g id="ASSETS--Pill-Icons" transform="translate(-181.000000, -259.000000)" fill-rule="nonzero" fill="#FFFFFF">
            <g id="nielsen" transform="translate(181.000000, 259.000000)">
                <path d="M12.4037931,12.0631034 C12.1686122,12.0358503 11.9351429,11.9954422 11.7044828,11.942069 C11.2158621,11.8255172 11.1082759,11.682069 11.1082759,11.1844828 L11.1082759,4.35724138 C11.1099713,3.78491291 11.0345811,3.21496293 10.8841379,2.66275862 C10.7092687,1.83527943 10.1716395,1.13026371 9.41992451,0.742674237 C8.66820951,0.355084766 7.78206837,0.325994613 7.00655172,0.663448276 C5.83626165,1.12780906 4.84620009,1.95600341 4.18241379,3.02586207 C4.11861064,3.09778929 4.10778914,3.20239714 4.15551724,3.28586207 C4.36172414,3.10655172 4.55896552,2.9362069 4.7562069,2.75689655 C5.39064041,2.16657046 6.26507994,1.90772309 7.11862069,2.05758621 C7.79832707,2.1325417 8.38285958,2.5726603 8.64275862,3.20517241 C8.84486491,3.64730025 8.9634124,4.12301007 8.99241379,4.60827586 C9.07758621,5.97551724 9.01482759,7.34724138 9.02827586,8.71448276 C9.02827586,9.55724138 9.02827586,10.4 9.02827586,11.2427586 C9.02827586,11.6596552 8.92068966,11.8075862 8.51724138,11.9062069 C8.2662069,11.9644828 8.0062069,11.9868966 7.75068966,12.0227586 C7.49517241,12.0586207 7.51758621,12.1437931 7.6162069,12.3096552 C7.70710157,12.3703019 7.81817337,12.3928382 7.92551724,12.3724138 L12.2424138,12.3724138 C12.3483198,12.3921072 12.4577277,12.369582 12.5472414,12.3096552 L12.5472414,12.3096552 C12.6637931,12.1348276 12.5517241,12.1034483 12.4037931,12.0631034 Z" id="Shape"></path>
                <path d="M4.64413793,12.0362069 L4.22724138,11.9824138 C3.68482759,11.942069 3.48310345,11.7268966 3.48310345,11.18 L3.48310345,3.81034483 C3.48310345,2.77482759 3.48310345,1.73931034 3.48310345,0.703793103 C3.48310345,0.479655172 3.42034483,0.407931034 3.20068966,0.502068966 C2.98103448,0.596206897 2.81517241,0.641034483 2.62241379,0.708275862 C1.86034483,0.977241379 1.10275862,1.24172414 0.345172414,1.51517241 C0.251034483,1.55103448 0.103103448,1.55551724 0.0986206897,1.68551724 C0.094137931,1.81551724 0.246551724,1.82896552 0.331724138,1.87827586 C0.564827586,2.00827586 0.802413793,2.13827586 1.04896552,2.24586207 C1.30639209,2.34619008 1.46318574,2.60812771 1.43,2.88241379 C1.43,3.77896552 1.43,4.67551724 1.43,5.5362069 L1.43,11.1306897 C1.43,11.6013793 1.34034483,11.7358621 0.887586207,11.8882759 C0.61862069,11.9824138 0.331724138,12.0362069 0.0537931034,12.107931 C-0.103103448,12.4262069 0.156896552,12.367931 0.304827586,12.367931 L4.48275862,12.367931 C4.58076667,12.3867498 4.68212286,12.3622281 4.76068966,12.3006897 L4.76068966,12.3006897 C4.85034483,12.1572414 4.82793103,12.0631034 4.64413793,12.0362069 Z" id="Shape"></path>
            </g>
        </g>
    </g>
</svg>

<svg width="13" height="13" xmlns="http://www.w3.org/2000/svg"><g fill-rule="nonzero" fill="#FFF"><path d="M12.404 12.063a6.339 6.339 0 0 1-.7-.12c-.488-.117-.596-.26-.596-.759V4.357a6.374 6.374 0 0 0-.224-1.694 2.815 2.815 0 0 0-3.877-2 5.872 5.872 0 0 0-2.825 2.363.224.224 0 0 0-.026.26c.206-.18.403-.35.6-.53a2.766 2.766 0 0 1 2.363-.698 1.87 1.87 0 0 1 1.524 1.147c.202.442.32.918.35 1.403.085 1.368.022 2.74.035 4.106v2.529c0 .417-.107.565-.51.663-.252.058-.512.08-.767.117-.256.036-.233.12-.135.287.091.06.202.083.31.062h4.316a.412.412 0 0 0 .305-.062c.117-.175.005-.207-.143-.247zM4.644 12.036l-.417-.054c-.542-.04-.744-.255-.744-.802V3.81.704c0-.224-.063-.296-.282-.202-.22.094-.386.139-.579.206-.762.27-1.52.534-2.277.807-.094.036-.242.04-.246.17-.005.13.148.144.233.193.233.13.47.26.717.368.257.1.414.362.381.636V11.131c0 .47-.09.605-.542.757-.27.094-.556.148-.834.22-.157.318.103.26.25.26h4.179c.098.019.2-.006.278-.067.09-.144.067-.238-.117-.265z"/></g></svg>
